Newaita/actions/32/view-grid.svg

<svg height="32" viewBox="0 0 32 32" width="32" xmlns="http://www.w3.org/2000/svg"><g fill="#424242"><path d="m3.96875 2.894531h3.308594c.730468 0 1.324218.59375 1.324218 1.324219v3.308594c0 .730468-.59375 1.324218-1.324218 1.324218h-3.308594c-.730469 0-1.324219-.59375-1.324219-1.324218v-3.308594c0-.730469.59375-1.324219 1.324219-1.324219zm0 0"/><path d="m14.222656 2.894531h3.308594c.730469 0 1.320312.59375 1.320312 1.324219v3.308594c0 .730468-.589843 1.324218-1.320312 1.324218h-3.308594c-.730468 0-1.324218-.59375-1.324218-1.324218v-3.308594c0-.730469.59375-1.324219 1.324218-1.324219zm0 0"/><path d="m24.476562 2.894531h3.308594c.730469 0 1.320313.59375 1.320313 1.324219v3.308594c0 .730468-.589844 1.324218-1.320313 1.324218h-3.308594c-.730468 0-1.324218-.59375-1.324218-1.324218v-3.308594c0-.730469.59375-1.324219 1.324218-1.324219zm0 0"/><path d="m3.96875 23.402344h3.308594c.730468 0 1.324218.59375 1.324218 1.324218v3.308594c0 .730469-.59375 1.320313-1.324218 1.320313h-3.308594c-.730469 0-1.324219-.589844-1.324219-1.320313v-3.308594c0-.730468.59375-1.324218 1.324219-1.324218zm0 0"/><path d="m14.222656 23.402344h3.308594c.730469 0 1.320312.59375 1.320312 1.324218v3.308594c0 .730469-.589843 1.320313-1.320312 1.320313h-3.308594c-.730468 0-1.324218-.589844-1.324218-1.320313v-3.308594c0-.730468.59375-1.324218 1.324218-1.324218zm0 0"/><path d="m24.476562 23.402344h3.308594c.730469 0 1.320313.59375 1.320313 1.324218v3.308594c0 .730469-.589844 1.320313-1.320313 1.320313h-3.308594c-.730468 0-1.324218-.589844-1.324218-1.320313v-3.308594c0-.730468.59375-1.324218 1.324218-1.324218zm0 0"/><path d="m3.96875 13.148438h3.308594c.730468 0 1.324218.59375 1.324218 1.324218v3.308594c0 .730469-.59375 1.320312-1.324218 1.320312h-3.308594c-.730469 0-1.324219-.589843-1.324219-1.320312v-3.308594c0-.730468.59375-1.324218 1.324219-1.324218zm0 0"/><path d="m14.222656 13.148438h3.308594c.730469 0 1.320312.59375 1.320312 1.324218v3.308594c0 .730469-.589843 1.320312-1.320312 1.320312h-3.308594c-.730468 0-1.324218-.589843-1.324218-1.320312v-3.308594c0-.730468.59375-1.324218 1.324218-1.324218zm0 0"/><path d="m24.476562 13.148438h3.308594c.730469 0 1.320313.59375 1.320313 1.324218v3.308594c0 .730469-.589844 1.320312-1.320313 1.320312h-3.308594c-.730468 0-1.324218-.589843-1.324218-1.320312v-3.308594c0-.730468.59375-1.324218 1.324218-1.324218zm0 0"/></g></svg>

<?xml version="1.0" encoding="UTF-8"?>
<svg xmlns="http://www.w3.org/2000/svg" xmlns:xlink="http://www.w3.org/1999/xlink" width="32px" height="32px" viewBox="0 0 32 32" version="1.1">
<g id="surface1">
<path style=" stroke:none;fill-rule:nonzero;fill:rgb(25.882354%,25.882354%,25.882354%);fill-opacity:1;" d="M 3.96875 2.894531 L 7.277344 2.894531 C 8.007812 2.894531 8.601562 3.488281 8.601562 4.21875 L 8.601562 7.527344 C 8.601562 8.257812 8.007812 8.851562 7.277344 8.851562 L 3.96875 8.851562 C 3.238281 8.851562 2.644531 8.257812 2.644531 7.527344 L 2.644531 4.21875 C 2.644531 3.488281 3.238281 2.894531 3.96875 2.894531 Z M 3.96875 2.894531 "/>
<path style=" stroke:none;fill-rule:nonzero;fill:rgb(25.882354%,25.882354%,25.882354%);fill-opacity:1;" d="M 14.222656 2.894531 L 17.53125 2.894531 C 18.261719 2.894531 18.851562 3.488281 18.851562 4.21875 L 18.851562 7.527344 C 18.851562 8.257812 18.261719 8.851562 17.53125 8.851562 L 14.222656 8.851562 C 13.492188 8.851562 12.898438 8.257812 12.898438 7.527344 L 12.898438 4.21875 C 12.898438 3.488281 13.492188 2.894531 14.222656 2.894531 Z M 14.222656 2.894531 "/>
<path style=" stroke:none;fill-rule:nonzero;fill:rgb(25.882354%,25.882354%,25.882354%);fill-opacity:1;" d="M 24.476562 2.894531 L 27.785156 2.894531 C 28.515625 2.894531 29.105469 3.488281 29.105469 4.21875 L 29.105469 7.527344 C 29.105469 8.257812 28.515625 8.851562 27.785156 8.851562 L 24.476562 8.851562 C 23.746094 8.851562 23.152344 8.257812 23.152344 7.527344 L 23.152344 4.21875 C 23.152344 3.488281 23.746094 2.894531 24.476562 2.894531 Z M 24.476562 2.894531 "/>
<path style=" stroke:none;fill-rule:nonzero;fill:rgb(25.882354%,25.882354%,25.882354%);fill-opacity:1;" d="M 3.96875 23.402344 L 7.277344 23.402344 C 8.007812 23.402344 8.601562 23.996094 8.601562 24.726562 L 8.601562 28.035156 C 8.601562 28.765625 8.007812 29.355469 7.277344 29.355469 L 3.96875 29.355469 C 3.238281 29.355469 2.644531 28.765625 2.644531 28.035156 L 2.644531 24.726562 C 2.644531 23.996094 3.238281 23.402344 3.96875 23.402344 Z M 3.96875 23.402344 "/>
<path style=" stroke:none;fill-rule:nonzero;fill:rgb(25.882354%,25.882354%,25.882354%);fill-opacity:1;" d="M 14.222656 23.402344 L 17.53125 23.402344 C 18.261719 23.402344 18.851562 23.996094 18.851562 24.726562 L 18.851562 28.035156 C 18.851562 28.765625 18.261719 29.355469 17.53125 29.355469 L 14.222656 29.355469 C 13.492188 29.355469 12.898438 28.765625 12.898438 28.035156 L 12.898438 24.726562 C 12.898438 23.996094 13.492188 23.402344 14.222656 23.402344 Z M 14.222656 23.402344 "/>
<path style=" stroke:none;fill-rule:nonzero;fill:rgb(25.882354%,25.882354%,25.882354%);fill-opacity:1;" d="M 24.476562 23.402344 L 27.785156 23.402344 C 28.515625 23.402344 29.105469 23.996094 29.105469 24.726562 L 29.105469 28.035156 C 29.105469 28.765625 28.515625 29.355469 27.785156 29.355469 L 24.476562 29.355469 C 23.746094 29.355469 23.152344 28.765625 23.152344 28.035156 L 23.152344 24.726562 C 23.152344 23.996094 23.746094 23.402344 24.476562 23.402344 Z M 24.476562 23.402344 "/>
<path style=" stroke:none;fill-rule:nonzero;fill:rgb(25.882354%,25.882354%,25.882354%);fill-opacity:1;" d="M 3.96875 13.148438 L 7.277344 13.148438 C 8.007812 13.148438 8.601562 13.742188 8.601562 14.472656 L 8.601562 17.78125 C 8.601562 18.511719 8.007812 19.101562 7.277344 19.101562 L 3.96875 19.101562 C 3.238281 19.101562 2.644531 18.511719 2.644531 17.78125 L 2.644531 14.472656 C 2.644531 13.742188 3.238281 13.148438 3.96875 13.148438 Z M 3.96875 13.148438 "/>
<path style=" stroke:none;fill-rule:nonzero;fill:rgb(25.882354%,25.882354%,25.882354%);fill-opacity:1;" d="M 14.222656 13.148438 L 17.53125 13.148438 C 18.261719 13.148438 18.851562 13.742188 18.851562 14.472656 L 18.851562 17.78125 C 18.851562 18.511719 18.261719 19.101562 17.53125 19.101562 L 14.222656 19.101562 C 13.492188 19.101562 12.898438 18.511719 12.898438 17.78125 L 12.898438 14.472656 C 12.898438 13.742188 13.492188 13.148438 14.222656 13.148438 Z M 14.222656 13.148438 "/>
<path style=" stroke:none;fill-rule:nonzero;fill:rgb(25.882354%,25.882354%,25.882354%);fill-opacity:1;" d="M 24.476562 13.148438 L 27.785156 13.148438 C 28.515625 13.148438 29.105469 13.742188 29.105469 14.472656 L 29.105469 17.78125 C 29.105469 18.511719 28.515625 19.101562 27.785156 19.101562 L 24.476562 19.101562 C 23.746094 19.101562 23.152344 18.511719 23.152344 17.78125 L 23.152344 14.472656 C 23.152344 13.742188 23.746094 13.148438 24.476562 13.148438 Z M 24.476562 13.148438 "/>
</g>
</svg>
